icons/brand/icon_maestro_l_color.svg

<?xml version="1.0" encoding="UTF-8"?>
<svg width="24px" height="24px" viewBox="0 0 24 24" version="1.1" xmlns="http://www.w3.org/2000/svg" xmlns:xlink="http://www.w3.org/1999/xlink">
    <!-- Generator: Sketch 47.1 (45422) - http://www.bohemiancoding.com/sketch -->
    <title>icon_maestro_l_color</title>
    <desc>Created with Sketch.</desc>
    <defs></defs>
    <g id="Page-1" stroke="none" stroke-width="1" fill="none" fill-rule="evenodd">
        <g id="icon_maestro_l_color">
            <g>
                <rect id="_ph_" x="0" y="0" width="24" height="24"></rect>
                <path d="M12.0363659,17.7319853 C13.2314152,18.7025262 14.7645479,19.2857143 16.4363681,19.2857143 C20.2521536,19.2857143 23.345459,16.2476465 23.345459,12.5 C23.345459,8.75235348 20.2521536,5.71428571 16.4363681,5.71428571 C14.7645479,5.71428571 13.2314152,6.29747382 12.0363659,7.26801473 C13.5689137,8.51264985 14.5454545,10.3943197 14.5454545,12.5 C14.5454545,14.6056803 13.5689137,16.4873501 12.0363659,17.7319853 Z" id="Combined-Shape" fill="#0099DF"></path>
                <path d="M11.9636341,7.26801473 C10.7685848,6.29747382 9.23545209,5.71428571 7.56363192,5.71428571 C3.74784638,5.71428571 0.654541016,8.75235348 0.654541016,12.5 C0.654541016,16.2476465 3.74784638,19.2857143 7.56363192,19.2857143 C9.23545209,19.2857143 10.7685848,18.7025262 11.9636341,17.7319853 C10.4310863,16.4873501 9.45454545,14.6056803 9.45454545,12.5 C9.45454545,10.3943197 10.4310863,8.51264985 11.9636341,7.26801473 Z" id="Oval-2" fill="#EB001B"></path>
                <path d="M12,7.23868395 C13.5534487,8.48298177 14.5454545,10.3777119 14.5454545,12.5 C14.5454545,14.6222881 13.5534487,16.5170182 12,17.7613161 C10.4465513,16.5170182 9.45454545,14.6222881 9.45454545,12.5 C9.45454545,10.3777119 10.4465513,8.48298177 12,7.23868395 Z" id="Combined-Shape" fill="#6C6BBD"></path>
            </g>
        </g>
    </g>
</svg>

<svg width="24" height="24" viewBox="0 0 24 24" xmlns="http://www.w3.org/2000/svg">
  <g fill="none" fill-rule="evenodd">
    <path d="M0 0h24v24H0z"/>
    <path d="M12.036 17.732c1.195.97 2.73 1.554 4.4 1.554 3.816 0 6.91-3.038 6.91-6.786 0-3.748-3.094-6.786-6.91-6.786-1.67 0-3.205.583-4.4 1.554 1.533 1.245 2.51 3.126 2.51 5.232 0 2.106-.977 3.987-2.51 5.232z" fill="#0099DF"/>
    <path d="M11.964 7.268c-1.195-.97-2.73-1.554-4.4-1.554-3.816 0-6.91 3.038-6.91 6.786 0 3.748 3.094 6.786 6.91 6.786 1.67 0 3.205-.583 4.4-1.554-1.533-1.245-2.51-3.126-2.51-5.232 0-2.106.977-3.987 2.51-5.232z" fill="#EB001B"/>
    <path d="M12 7.24c1.553 1.243 2.545 3.138 2.545 5.26s-.992 4.017-2.545 5.26c-1.553-1.243-2.545-3.138-2.545-5.26S10.447 8.483 12 7.24z" fill="#6C6BBD"/>
  </g>
</svg>
